svg/fluentui-system-icons/ic_fluent_space_3d_32_filled.svg

<svg width="32" height="32" viewBox="0 0 32 32" fill="none" xmlns="http://www.w3.org/2000/svg">
<path d="M3 7.5C3 5.01472 5.01472 3 7.5 3H24.5C26.9853 3 29 5.01472 29 7.5V21H28.0135L23.6223 16H27V7.5C27 6.11929 25.8807 5 24.5 5H7.5C6.11929 5 5 6.11929 5 7.5V16H8.37804L3.98679 21H3V7.5ZM21.4837 23H29V24.5C29 26.9853 26.9853 29 24.5 29H23.354L22.9544 27.7015L21.4837 23ZM25.3517 21H20.8581L19.294 16H20.9605L25.3517 21ZM13.2375 21H18.7625L17.1985 16H14.8015L13.2375 21ZM19.3882 23H12.6119L10.7352 29H21.2614L21.0456 28.2985L21.0442 28.2941L19.3882 23ZM12.706 16L11.1419 21H6.64861L11.0399 16H12.706ZM3 24.5V23H10.5163L8.63981 29H7.5C5.01472 29 3 26.9853 3 24.5Z" fill="#212121"/>
</svg>

<svg xmlns="http://www.w3.org/2000/svg" width="32" height="32"><path d="M3 7.5A4.5 4.5 0 0 1 7.5 3h17A4.5 4.5 0 0 1 29 7.5V21h-.986l-4.392-5H27V7.5A2.5 2.5 0 0 0 24.5 5h-17A2.5 2.5 0 0 0 5 7.5V16h3.378l-4.391 5H3V7.5ZM21.484 23H29v1.5a4.5 4.5 0 0 1-4.5 4.5h-1.146l-.4-1.299L21.484 23Zm3.868-2h-4.494l-1.564-5h1.666l4.392 5Zm-12.114 0h5.524l-1.564-5h-2.396l-1.564 5Zm6.15 2h-6.776l-1.877 6h10.526l-.215-.701-.002-.005L19.388 23Zm-6.682-7-1.564 5H6.649l4.39-5h1.667ZM3 24.5V23h7.516L8.64 29H7.5A4.5 4.5 0 0 1 3 24.5Z"/></svg>
